X:1
T:Title
%%score ( 1 2 ) ( 3 4 )
L:1/8
Q:1/4=90
M:4/4
K:A
V:1 treble nm="Midi_20"
V:2 treble 
V:3 bass nm="Midi_20"
V:4 bass 
V:1
"^Rex gloriae (87. 87. D.)""^Henry Smart\n(1813-1879)""^Basil Woodd\n(1760-1831)""^Hail, thou Source of every blessing" A2 E2 A2 B2 | %1
w: |
w: |
 c3 d c2 B2 | e2 A2 B2 cd | c2 B2 c4 || c2 B2 c2 e2 | A2 G2 G2 F2 | B2 B2 e2 G2 | F2 F2 E4 || %8
w: ev- ery bless- ing,|Sove- reign Fa- ther *|of man- kind!|||||
w: east- ern sa- ges,|See the star of *|mer- cy shine,|||||
 E3 F G2 B2 | A2 G2 F2 E2 | A2 B2 cd e2 | d2 c2 B4 || A2 E2 A2 B2 | c3 d c2 B2 | e2 A2 d2 c2 | %15
w: ||We ap- proach * thy|||||
w: ||Gen- tiles now * their|||||
 B2 B2 A4 |] %16
w: |
w: |
V:2
 E2 B,2 C2 E2 | E2 E2 E2 E2 | E2 C2 F2 F2 | E2 E2 E4 || E2 E2 E2 E2 | C^D E2 E2 D2 | F2 GF E2 E2 | %7
w: |||||grace * * * *||
w: |||||for\- * * * *||
 E2 ^D2 E4 || E3 E E2 F2 | E2 E2 D2 C2 | C2 E2 E2 E2 | E2 E2 E4 || E2 E2 E2 E2 | E2 A2 E2 E2 | %14
w: |||||||
w: |||||||
 E2 C2 F2 E2 | E3 D C4 |] %16
w: ||
w: ||
V:3
 C2 B,2 A,2 G,2 | A,3 B, A,2 G,2 | A,2 A,2 A,2 A,2 | A,2 G,2 A,4 || A,2 G,2 A,2 B,2 | %5
w: |||||
w: |||||
 C2 B,2 B,2 B,2 | A,2 B,A, G,2 B,2 | C2 B,A, G,4 || G,3 A, B,2 =D2 | C2 B,2 A,B, C2 | %10
w: |In thy * courts ad-|miss- ion * find.|||
w: |Myst- ery * great of|love di\- * vine.|||
 A,2 G,2 A,B, C2 | G,2 A,2 G,4 || A,2 G,2 A,2 G,2 | A,3 B, A,2 G,2 | A,2 A,2 A,2 A,2 | %15
w: |||||
w: |||||
 A,2 G,2 A,4 |] %16
w: |
w: |
V:4
 A,2 G,2 F,2 E,D, | C,2 A,,2 C,2 E,2 | C,2 F,2 D,2 C,B,, | E,2 E,2 A,,4 || A,2 E,2 A,2 G,2 | %5
w: Hail, thou Source of *||||Gen- tiles now, thy|
w: Now re- vealed to *||||Myst- ery hid in|
 F,2 G,A, B,2 B,,2 | ^D,2 B,,2 C,2 B,,2 | A,,2 B,,2 E,4 || E,3 E, E,2 B,,2 | C,D, E,2 F,G, A,2 | %10
w: * pos\- * sess- ing,|||Once far off, but|now * in- vit\- * ed,|
w: * mer * a- ges,|||Hail, thou u- ni-|ver- * sal Sa\- * viour!|
 F,2 E,2 A,2 C,2 | B,,2 A,,2 (E,2 D,2) || C,2 E,D, C,2 B,,2 | A,,2 F,2 E,3 D, | C,2 F,2 D,2 A,,2 | %15
w: |sac- red throne; *|In thy * co- ve-|nant u- nit- ed,|Re- con- ciled, re-|
w: |offer- ings bring, *|In thy * tem- ple|seek thy fa- vour,|Je- sus Christ, our|
 E,2 E,2 A,,4 |] %16
w: deemed, made one.|
w: Lord and King.|

